X: 745
T: Mengjun shang qianxian
%%abc-version 2.0
%%abcx-abcm2ps-target-version 5.9.1 (29 Sep 2008)
%%abc-creator hum2abc beta
%%abcx-conversion-date 2013/10/02 07:52:30
%%abc-edited-by Helmut Schaffrath
%%humdrum-veritas 480833672
%%humdrum-veritas-data 3600583182
%%continueall 1
%%barnumbers 0
L: 1/8
M: 2/4
K: F
G E D C [I:setbarnb 1]| 
c> d A c | 
f f/ d/ c/ d/ c/ A/ | 
G4 | 
A G/ A/c2 | 
f2d c | 
c A G/ A/ G/ D/ | 
C4 | 
D C/ D/ F F | 
G A c A | 
G A G C | 
D4 | 
f f d c | 
c F G d | 
c G/ A/ F D | 
C4 |]  



